X: 1
T: Indiff\'erence
C: Tony Murena
R: waltz
Z: 2021 John Chambers <jc:trillian.mit.edu>
S: Sally Malast (email, pdf)
M: 3/4
L: 1/8
K: Em
zB, EG Bd "^A"|:\
"Em"(3cdc B4- | BBeg bd' | (3c'd'c' b4 | zB, EG Bd |\
"Em"cB e^d fe | gf ag fe | "B7"(3efe ^d4- | ^d2 ag fe |
"B7"f3 e ^de | ^d3 c Bc | B6 | z2 ag fg |\
"B7"fe ^de dc | Bc BA GF | "Em"(3FGF E4- | EB, EG Bd |
"Em"(3cdc B4- | BB eg bd' | (3c'd'c' b4 | zB, EG Be |\
"E7"=fe dc BA | ^GA Bc de | "Am"(3ded c4 | z2 A2 B2 |
"Am"ce Ac F2 | zA Bc BA | "Em"Be GB E2 | zE FG FE |\
"F#7"G6 | "B7"(3FGF E2 ^D2 | "Em"E6 "^fine"y|[1 zB, EG Bd :|[2 E2 zG FE :|
"^B"|:\
"B"^DF Ac B^A | B^d fc' b^a | "Em"be' gb eg | Be gb ag |\
"B7"ac' fa ^df | B^e fa gf |[1 "Em"gb eg Be | E2 "^1,3"zG FE :|
[2 "Em"ee ^de gb | "^2,4"e'2 "^Repeat A"EG B=d |]\
"^C"|:\
"G"D4 ^CD | B4 B2 | "B7"_E4 DE | B6 | "E7"E2 ^G2 B2 | e3 _e d^c | "Am"=cA =E=C B,C | A,6 |
[1 "D7"d4 AB | c2 d2 c2 | "G"B6 | G6 | "F#7"F4 F2 | (3FGF ^E2 F2 | "B7"(B4 _B2 | "D7"A2) E2 _E2 :|\
[2 "C"e4 e2 | "C#7"f4 g | "G/D"g4 d2 | "E7"c4 B2 | "A7"B6 | "D7"A3 B _BA | "G"G6- | GB, EG "^to A"Bd |]
% This [C] section based roughly on Angel Debarre
